X: 311
T: Lerikos 
O: Greece
F: http://www.youtube.com/watch?v=cq4TvhMf1Yg
M: 4/4
L: 1/8
Q: 1/4=200
K: Gm
|: "Gm"BA G2 -GA Bc | ded2 "(Dm)"z2  fe  \
| "D7"de cd BcAB | "Gm"GABc "(D7)"d4 \
| "Gm"BA G2 -GA Bc | ded2 "(Dm)"z2 fe  |
| "D7"de cd Bc AB |[1 "Gm".G2 .D2 .G2 z2 :|[2 "Gm"G4 z4 \
|: "Gm"G4 "Dm"F2 E2 | "Gm"D2 C2 B,2  C2  \
| D8 |[1 GA Bc "Dm"d2 z2 :|[2 "Gm"D4 "Dm"z4 |
|: "Gm"B2 A2 G2 F2 | "Cm"G2 F2 ED C2  \
| "D7"D2 C2 B,2 A,2 | [1  "Gm"B,C D2 "D(m)"z3 A :|[2 "Gm"D4 B,4  \
|: "Cm"C4 E4 | G2 G2 F2 E2  \
| "Gm"E2 D6 | D8 |
|1 "D"^F6 G2 | A2 G2 ^F2 E2  \
| "Gm"E2 D6 | D6 z2 \
:|2 "D"^F6 G2 | A2 A2 B2 A2  \
| "Gm"{B}A2 G6- | "Gm"G4 z4 |]



